svgs/deviantart.svg

<?xml version="1.0" encoding="UTF-8" standalone="no"?>
<svg
   id="svg6"
   version="1.1"
   viewBox="0 0 192 192"
   height="192"
   width="192"
   xmlns="http://www.w3.org/2000/svg"
   xmlns:svg="http://www.w3.org/2000/svg"
   xmlns:rdf="http://www.w3.org/1999/02/22-rdf-syntax-ns#"
   xmlns:cc="http://creativecommons.org/ns#"
   xmlns:dc="http://purl.org/dc/elements/1.1/">
  <metadata
     id="metadata12">
    <rdf:RDF>
      <cc:Work
         rdf:about="">
        <dc:format>image/svg+xml</dc:format>
        <dc:type
           rdf:resource="http://purl.org/dc/dcmitype/StillImage" />
      </cc:Work>
    </rdf:RDF>
  </metadata>
  <defs
     id="defs10" />
  <path
     style="display:inline;fill:none;stroke:#000000;stroke-width:12;stroke-linecap:round;stroke-linejoin:round"
     id="path2"
     d="m 100.3297,54.000041 -40.369399,-3.6e-5 A 5.9602956,5.9602956 135.00003 0 0 54,59.960301 v 16.079398 a 5.9602613,5.9602613 44.99981 0 0 5.960301,5.960261 l 26.580043,-1.76e-4 m 5.258762,56.000456 40.240594,-2.1e-4 A 5.9603319,5.9603319 134.99985 0 0 138,132.0397 v -16.0794 a 5.9602346,5.9602346 44.999681 0 0 -5.9603,-5.96023 l -26.41632,2.9e-4" />
  <path
     id="path834"
     d="M 100.3297,54.000041 116.08911,22 h 15.88417 A 6.0267195,6.0267195 45 0 1 138,28.026719 v 16.397524 l -32.37662,65.576117"
     style="display:inline;fill:none;stroke:#000000;stroke-width:12;stroke-linecap:round;stroke-linejoin:round;stroke-miterlimit:4;stroke-dasharray:none;stroke-opacity:1" />
  <path
     id="path829"
     d="M 91.799106,138.00024 76,170 H 60.02919 A 6.02919,6.02919 45 0 1 54,163.97081 V 148.07407 L 86.540344,81.999784"
     style="display:inline;fill:none;stroke:#000000;stroke-width:12;stroke-linecap:round;stroke-linejoin:round;stroke-miterlimit:4;stroke-dasharray:none;stroke-opacity:1" />
</svg>

<svg xmlns="http://www.w3.org/2000/svg" width="192" height="192" viewBox="0 0 192 192"><path fill="none" stroke="#000" stroke-linecap="round" stroke-linejoin="round" stroke-width="12" d="M100.33 54H59.96A5.96 5.96 135 0 0 54 59.96v16.08A5.96 5.96 45 0 0 59.96 82h26.58m5.26 56h40.24a5.96 5.96 135 0 0 5.96-5.96v-16.08a5.96 5.96 45 0 0-5.96-5.96h-26.417m-5.293-56 15.76-32h15.883A6.027 6.027 45 0 1 138 28.027v16.397L105.623 110M91.8 138 76 170H60.03a6.03 6.03 45 0 1-6.03-6.03v-15.896L86.54 82"/></svg>
